X:0976
M:C
L:1/8
Q:1/2=80
K:D
d/e/f/g/|agaf d2df|edec A2ef|gfed bagf|e2ee e2
ag      |f2dB A2ef|gfbe B3 g|fbad f2e2|d2dd d2|]

